src/icons/settings.svg

<?xml version="1.0" encoding="UTF-8"?>
<svg xmlns="http://www.w3.org/2000/svg" xmlns:xlink="http://www.w3.org/1999/xlink" width="32" height="32" viewBox="0 0 32 32" version="1.1">
<g id="surface1">
<path style=" stroke:none;fill-rule:nonzero;fill:rgb(0%,0%,0%);fill-opacity:1;" d="M 21.332031 4.265625 C 19.953125 4.265625 18.777344 5.164062 18.332031 6.398438 L 4.265625 6.398438 C 3.675781 6.398438 3.199219 6.875 3.199219 7.464844 C 3.199219 8.054688 3.675781 8.535156 4.265625 8.535156 L 18.332031 8.535156 C 18.777344 9.769531 19.953125 10.667969 21.332031 10.667969 C 22.710938 10.667969 23.886719 9.769531 24.332031 8.535156 L 27.734375 8.535156 C 28.324219 8.535156 28.800781 8.054688 28.800781 7.464844 C 28.800781 6.875 28.324219 6.398438 27.734375 6.398438 L 24.332031 6.398438 C 23.886719 5.164062 22.710938 4.265625 21.332031 4.265625 M 21.332031 6.398438 C 21.914062 6.398438 22.355469 6.835938 22.386719 7.40625 L 22.386719 7.527344 C 22.367188 8.09375 21.898438 8.542969 21.332031 8.535156 C 20.753906 8.535156 20.3125 8.097656 20.277344 7.527344 C 20.28125 7.484375 20.28125 7.445312 20.277344 7.402344 C 20.300781 6.835938 20.765625 6.394531 21.332031 6.398438 M 12.800781 12.800781 C 11.421875 12.800781 10.246094 13.699219 9.800781 14.933594 L 4.265625 14.933594 C 3.675781 14.933594 3.199219 15.410156 3.199219 16 C 3.199219 16.589844 3.675781 17.066406 4.265625 17.066406 L 9.800781 17.066406 C 10.246094 18.300781 11.421875 19.199219 12.800781 19.199219 C 14.179688 19.199219 15.355469 18.300781 15.800781 17.066406 L 27.734375 17.066406 C 28.320312 17.066406 28.800781 16.589844 28.800781 16 C 28.800781 15.410156 28.320312 14.933594 27.734375 14.933594 L 15.800781 14.933594 C 15.355469 13.699219 14.179688 12.800781 12.800781 12.800781 M 12.800781 14.933594 C 13.378906 14.933594 13.824219 15.371094 13.855469 15.941406 C 13.851562 15.980469 13.851562 16.023438 13.855469 16.0625 C 13.832031 16.625 13.367188 17.070312 12.800781 17.066406 C 12.234375 17.074219 11.765625 16.625 11.746094 16.058594 C 11.75 16.019531 11.75 15.976562 11.746094 15.9375 C 11.765625 15.371094 12.234375 14.925781 12.800781 14.933594 M 17.066406 21.332031 C 15.6875 21.332031 14.511719 22.230469 14.066406 23.464844 L 4.265625 23.464844 C 3.675781 23.464844 3.199219 23.945312 3.199219 24.535156 C 3.199219 25.125 3.675781 25.601562 4.265625 25.601562 L 14.066406 25.601562 C 14.511719 26.835938 15.6875 27.734375 17.066406 27.734375 C 18.445312 27.734375 19.621094 26.835938 20.066406 25.601562 L 27.734375 25.601562 C 28.324219 25.601562 28.800781 25.125 28.800781 24.535156 C 28.800781 23.945312 28.324219 23.464844 27.734375 23.464844 L 20.066406 23.464844 C 19.621094 22.230469 18.445312 21.332031 17.066406 21.332031 M 17.066406 23.464844 C 17.648438 23.464844 18.089844 23.902344 18.121094 24.472656 C 18.117188 24.515625 18.117188 24.554688 18.121094 24.597656 C 18.097656 25.164062 17.632812 25.609375 17.066406 25.601562 C 16.5 25.605469 16.03125 25.160156 16.011719 24.59375 C 16.015625 24.554688 16.015625 24.511719 16.011719 24.472656 C 16.046875 23.902344 16.488281 23.464844 17.066406 23.464844 M 17.066406 23.464844 "/>
</g>
</svg>

<svg role="img" viewBox="0 0 32 32" xmlns="http://www.w3.org/2000/svg"><path d="M21.332 4.266c-1.379 0-2.555.898-3 2.132H4.266a1.067 1.067 0 1 0 0 2.137h14.066c.445 1.235 1.621 2.133 3 2.133s2.555-.898 3-2.133h3.402a1.067 1.067 0 1 0 0-2.137h-3.402c-.445-1.234-1.621-2.132-3-2.132m0 2.132c.582 0 1.023.438 1.055 1.008v.121a1.043 1.043 0 0 1-1.055 1.008c-.578 0-1.02-.437-1.055-1.008a.668.668 0 0 0 0-.125 1.048 1.048 0 0 1 1.055-1.004m-8.531 6.403c-1.38 0-2.555.898-3 2.133H4.266a1.065 1.065 0 1 0 0 2.133H9.8c.445 1.234 1.62 2.132 3 2.132 1.379 0 2.554-.898 3-2.133h11.933a1.065 1.065 0 1 0 0-2.133H15.801c-.446-1.234-1.621-2.132-3-2.132m0 2.133c.578 0 1.023.437 1.054 1.007a.627.627 0 0 0 0 .121 1.045 1.045 0 0 1-1.054 1.004 1.043 1.043 0 0 1-1.055-1.007.627.627 0 0 0 0-.122 1.04 1.04 0 0 1 1.055-1.003m4.265 6.398c-1.378 0-2.554.898-3 2.133h-9.8a1.067 1.067 0 1 0 0 2.137h9.8c.446 1.234 1.621 2.132 3 2.132 1.38 0 2.555-.898 3-2.132h7.668a1.067 1.067 0 1 0 0-2.137h-7.668c-.445-1.235-1.62-2.133-3-2.133m0 2.133c.582 0 1.024.437 1.055 1.008a.668.668 0 0 0 0 .125 1.045 1.045 0 0 1-1.055 1.004 1.046 1.046 0 0 1-1.054-1.008.627.627 0 0 0 0-.121c.035-.57.476-1.008 1.054-1.008m0 0" style="stroke:none;fill-rule:nonzero;fill:rgb(0%,0%,0%);fill-opacity:1"/></svg>
